!!!OTL: 1904. Braut- und Braeutigamspiel.
!!!ARE: Europa, Mitteleuropa, Deutschland, Sachsen, Dresden
!!!SCT: E1904
!!!TXL: @@DE
!!!YEM: Copyright 1995, estate of Helmut Schaffrath.
**kern	**text
*ICvox	*
*M2/4	*
*k[f#]	*
*G:	*
!LO:TX:a:t=Aus Dresden und anderen Gegenden Sachſens.	!
{8d	I._Es
=1	=1
8g	kam
8g	ein
8g	Mann
8b	aus
=2	=2
8g	Ni-
8g	-ne-
8d	-veh,
8r	.
=3	=3
8g	(Ni-
8b/	-ne-
8g	-veh)
8r}	.
=4	=4
{8a	Kai-
8g	-ſer
8f#	Fi-
8e	-pi-
=5	=5
(8dL	-la-
8bJ)	.
8b/}	-tus.
{8d	II._Was
=6	=6
8g	will
8g	der
8g	Mann
8b	aus
=7	=7
8g	Ni-
8g	-ne-
8d	-veh?
8r	.
=8	=8
8g	(Ni-
8b/	-ne-
8g	-veh)
8r}	.
=9	=9
{8a	Kai-
8g	-ſer
8f#	Fi-
8e	-pi-
=10	=10
(8dL	-la-
8bJ)	.
8b/}	-tus.
{8d	I._Er
=11	=11
8g	will
8g	die
8g	jüng-
8b	-ſte
=12	=12
8g	Toch-
8g	-ter
8d	hab'n.
8r	.
=13	=13
8g	(Ni-
8b/	-ne-
8g	-veh)
8r}	.
=14	=14
{8a	Kai-
8g	-ſer
8f#	Fi-
8e	-pi-
=15	=15
(8dL	-la-
8bJ)	.
8b/}	-tus.
{8d	II._Was
=16	=16
8g	will
8g	er
8g	mit
8b	der
=17	=17
8g	Toch-
8g	-ter
8d	machen?
8r	.
=18	=18
8g	(Ni-
8b/	-ne-
8g	-veh)
8r}	.
=19	=19
{8a	Kai-
8g	-ſer
8f#	Fi-
8e	-pi-
=20	=20
(8dL	-la-
8bJ)	.
8b/}	-tus.
{8d	I._Er
=21	=21
8g	will
8g	ihr
8g	ei-
8b	-nen
=22	=22
8g	Mann
8g	ver-
8d	-ſchaffen.
8r	.
=23	=23
8g	(Ni-
8b/	-ne-
8g	-veh)
8r}	.
=24	=24
{8a	Kai-
8g	-ſer
8f#	Fi-
8e	-pi-
=25	=25
(8dL	-la-
8bJ)	.
8b/}	-tus.
{8d	II._Was
=26	=26
8g	wird
8g	das
8g	für
8b	ein
=27	=27
8g	Mann
8g	wohl
8d	ſein?
8r	.
=28	=28
8g	(Ni-
8b/	-ne-
8g	-veh)
8r}	.
=29	=29
{8a	Kai-
8g	-ſer
8f#	Fi-
8e	-pi-
=30	=30
(8dL	-la-
8bJ)	.
8b/}	-tus.
{8d	I._Das
=31	=31
8g	wird
8g	der
8g	NN.
8b	(Müllers
=32	=32
8g	Auguſt)
8g	ſein.
8d	ec.
8r	.
=33	=33
8g	(Ni-
8b/	-ne-
8g	-veh)
8r}	.
=34	=34
{8a	Kai-
8g	-ſer
8f#	Fi-
8e	-pi-
=35	=35
(8dL	-la-
8bJ)	-tus.
8b/}	.
{8d	.
=36	=36
8g	.
8g	.
8g	.
8b	.
=37	=37
8g	.
8g	.
8d	.
8r	.
=38	=38
8g	.
8b/	.
8g	.
8r}	.
=39	=39
{8a	.
8g	.
8f#	.
8e	.
=40	=40
(8dL	.
8bJ)	.
8b/}	.
==	==
!!!AGN: Kinder - Lied, Tanz, Spiel, Brautwerbung
!!!ONB: ESAC (Essen Associative Code) Database: ERK3
!!!AMT: simple duple
!!!AIN: vox
!!!EED: Helmut Schaffrath
!!!EEV: 1.0
!!!GTL: Einige Kinderlieder. d) Spiel- und Tanzliedchen.
!!!URL-scan: https://rosdok.uni-rostock.de/mcrviewer/recordIdentifier/rosdok_ppn745177999/iview2/phys_0620.iview2?x=188.9681574111819&y=1506.0484733865596&scale=0.7014306698522895&rotation=0&layout=singlePageLayout
!!!ENC: Anna Maria Matuszewska
!!!EEV: 2025/09/01
*-	*-
